X: 1
T:The Rock and Wee Pickle Tow  "CYMRU"
M:6/8
L:1/8
Q:80
C:Trad.
S:March
K:HP
|: e|
{g}A2{GdGe}A{g}A3/2B/2{GdG}c|
{g}c/2a3/2c{gBG}B2{ag}a|
c/2{d}A3/2{d}B{gcd}c2{e}B|  !
{g}c2{GdGe}A{GAG}A2{g}e| |
{g}A2{GdGe}A{g}A3/2B/2{GdG}c|
{g}c/2a3/2c{g}B3/2c/2d|  !
{gef}e3/2c/2{d}A{gcd}c2{e}B|
{g}c2{GdGe}A{GAG}A2:| |:
a|  !
{fg}f2a{fg}f2a|
f/2a3/2f{gfg}f3/2e/2{g}c|
{gef}e2{GdG}e{gef}e3/2c/2e|  !
{g}f/2a3/2c{gcd}c3/2{g}B/2{d}A|1 |
{Gdc}d3/2{g}c/2d{gef}e2{GdG}e|
{g}f/2a3/2c{gBG}B2a|  !
c/2{d}A3/2{d}B{gcd}c2{e}B|
{g}c2{GdGe}A{GAG}A2:|2 |
{Gdc}d3/2{g}c/2d{gef}e2{GdG}e|  !
{g}f/2a3/2c{g}B3/2c/2d|
{gef}e3/2c/2{d}A{gcd}c2{e}B|
{g}c2{GdGe}A{GAG}A2:|  !
